X: 59
T:Motorway Mazurka
M:3/4
L:1/8
C:Jon Swayne
R:Mazurka
Z:Steve Mansfield
K:D
DE ED |: F2 DE ED | A2 DE ED | cd cB GB | AF DE ED | F2 DE ED | A2 DE ED |
cd cB GB |1 A2 DE ED :|2 A4 D2 |: AB BA Bd | B2A2G2 | GA AG Ad |
A2G2F2 | FG GF GB | G2F2E2 |1DC DEDE | FE FG FG :|2 DE DE FG | E4 ||
<end>
<start>
